X:237
T:En amour n'a sinon bien
S:from bay6.mid
C:Manuscript de Bayeux (fin XVe)
R:Chanson
M:4/4
L:1/8
Q:1/4=120
K:F 
V:1
A2 c2 G2 B2 | A2 GA FD E2 | D2zD F2 G2 | A/2G/2A/2=B/2 c2 d2 c2 | 
=BA =B2 A3z | A2 c2 G2 _B2 | A2 GA FD E2 | D2zD F2 G2 | 
AG/2F/2 E/2D/2G FE/2D/2 E2 | D8 | d3d2<c2e | c=B/2A/2 =B2 A4 | 
d3d2<c2A | c_B/2A/2 G/2F/2G F2zC | F2 G2 A/2G/2A/2B/2 c2 | dc B/2A/2B A3z | 
A2 c2 G2 B2 | A2 GA FD E2 | D2zD F2 G2 | AG/2F/2 EG FE/2D/2 E2 | D8 |]
V:2 clef=perc stafflines=1 staffscale=0.8
K:none
B2 BB B2 BB | B2 BB B2 BB | B2 BB B2 BB | B2 BB B2 BB | 
B2 BB B2 BB | B2 BB B2 BB | B2 BB B2 BB | B2 BB B2 BB | 
B2 BB B2 BB | B2 BB B2 BB | B2 BB B2 BB | B2 BB B2 BB | 
B2 BB B2 BB | B2 BB B2 BB | B2 BB B2 BB | B2 BB B2 BB | 
B2 BB B2 BB | B2 BB B2 BB | B2 BB B2 BB | B2 BB B2 BB | 
B8 |]





